assets/images/icons/set2/comment.svg

<svg xmlns="http://www.w3.org/2000/svg" width="28" height="28" xmlns:xlink="http://www.w3.org/1999/xlink" id="set2-comment">
  <use xlink:href="#a17" transform="translate(4.5 4.5)"/>
  <defs>
    <path id="a17" fill-rule="evenodd" d="M9 0C3.84729 0 0 3.20044 0 7.40625c0 2.65725 1.2326 4.81945 3.61249 6.09605v4.5601l4.95453-3.303H9c5.1527 0 9-3.2004 9-7.40625C18 3.22693 14.1208 0 9 0zm0 13.7594h-.73578l-3.65173 2.4344v-3.3089l-.28021-.1371C2.11896 11.6647 1 9.79138 1 7.40625 1 3.79761 4.36304 1 9 1c4.605 0 8 2.8241 8 6.35315 0 3.60865-3.363 6.40625-8 6.40625z"/>
  </defs>
</svg>

<svg width="28" height="28" viewBox="0 0 28 28" version="1.1" xmlns="http://www.w3.org/2000/svg" xmlns:xlink="http://www.w3.org/1999/xlink">
<title>@$&#9;</title>
<desc>Created using Figma</desc>
<g id="Canvas" transform="translate(-636 -1834)">
<g id="Icon/Misc/Carbon/Comment">
<g id="Icon/Misc/Carbon/Comment">
<g id="Shape">
<use xlink:href="#path0_fill" transform="translate(640.5 1838.5)" fill="#202A37"/>
</g>
</g>
</g>
</g>
<defs>
<path id="path0_fill" fill-rule="evenodd" d="M 9 0C 3.84729 0 0 3.20044 0 7.40625C 0 10.0635 1.2326 12.2257 3.61249 13.5023L 3.61249 18.0624L 8.56702 14.7594L 9 14.7594C 14.1527 14.7594 18 11.559 18 7.35315C 18 3.22693 14.1208 0 9 0ZM 9 13.7594L 8.26422 13.7594L 4.61249 16.1938L 4.61249 12.8849L 4.33228 12.7478C 2.11896 11.6647 1 9.79138 1 7.40625C 1 3.79761 4.36304 1 9 1C 13.605 1 17 3.8241 17 7.35315C 17 10.9618 13.637 13.7594 9 13.7594Z"/>
</defs>
</svg>
